X: 53
T: ThemeA
M: 6/8
L: 1/8
K:C clef=treble-8 octave=1 
V:1
A,6| C6| A,4G,2| F,3 x2F,| G,6| A,4G,2| 
F,4E,2| D,3 x2D,| A,4G,2| F,4A,2| C4B,2| A,3 x2A,|
A,3 G,3| F,3 G,3| F,4E,2| D,2F, E,D,2| C,3 x2C,| 
G,4-G,G,| F,3 A,3| D,2F,2E,2| D,6|

